assets/symbols/mulberry/certificate.svg

<svg height="850.394" viewBox="0 0 850.394 850.394" width="850.394" xmlns="http://www.w3.org/2000/svg"><path d="m653.21 112.83v633.34h-460.91v-633.34zm-53.74 496.38c7.771-7.68 12.55-18.07 12.55-29.5 0-23.67-20.47-42.85-45.71-42.85-25.25 0-45.71 19.18-45.71 42.85 0 11.86 5.141 22.59 13.44 30.35v102.5l32.27-38.569 33.57 33.569v-97.95z" fill="#a3d9ff"/><path d="m675.59 91.28v676.44h-505.68v-676.44zm-22.38 654.89v-633.34h-460.91v633.34z" fill="#0b00ea"/><path d="m599.88 609.61v97.949l-33.57-33.569-32.27 38.569v-102.489c8.27 7.72 19.67 12.5 32.27 12.5 13.051 0 24.83-5.13 33.16-13.36z" fill="#fff400"/><path d="m612.02 579.71c0 11.43-4.779 21.82-12.55 29.5-8.33 8.23-20.109 13.36-33.16 13.36-12.6 0-24-4.78-32.27-12.5v-.011c-8.3-7.76-13.44-18.489-13.44-30.35 0-23.67 20.46-42.85 45.71-42.85 25.24.001 45.71 19.181 45.71 42.851z" fill="#fff400"/><g fill="none"><g stroke="#231f20"><path d="m192.3 112.83h460.91v633.34h-460.91z" stroke-width="14"/><path d="m169.91 91.28h505.68v676.44h-505.68z" stroke-width="14"/><g stroke-width="21"><path d="m534.04 610.06c-8.3-7.76-13.44-18.489-13.44-30.35 0-23.67 20.46-42.85 45.71-42.85 25.24 0 45.71 19.18 45.71 42.85 0 11.43-4.779 21.82-12.55 29.5-8.33 8.23-20.109 13.36-33.16 13.36-12.6 0-24-4.78-32.27-12.5"/><path d="m534.04 610.06v102.5l32.27-38.57 33.57 33.57v-97.95m-361.99-340.1h371.38m-371.38 40.62h371.38m-371.38 42h371.38m-371.38 43.93h371.38m-371.38 40.62h371.38m-371.38 42.01h371.38m-310.04-277.99h246.21m-307.55 364.75h159.99"/></g></g><path d="m0 0h850.394v850.394h-850.394z"/></g></svg>

<svg xmlns="http://www.w3.org/2000/svg" width="850.394" height="850.394" viewBox="0 0 850.394 850.394" overflow="visible"><path d="M653.21 112.83v633.34H192.3V112.83h460.91zm-53.74 496.38c7.771-7.68 12.55-18.07 12.55-29.5 0-23.67-20.47-42.85-45.71-42.85-25.25 0-45.71 19.18-45.71 42.85 0 11.86 5.141 22.59 13.44 30.35v102.5l32.27-38.569 33.57 33.569v-97.95l-.41-.4z" fill="#a3d9ff"/><path d="M675.59 91.28v676.44H169.91V91.28h505.68zm-22.38 654.89V112.83H192.3v633.34h460.91z" fill="#0b00ea"/><path d="M599.88 609.61v97.949l-33.57-33.569-32.27 38.569V610.07c8.27 7.72 19.67 12.5 32.27 12.5 13.051 0 24.83-5.13 33.16-13.36l.41.4z" fill="#fff400"/><path d="M612.02 579.71c0 11.43-4.779 21.82-12.55 29.5-8.33 8.23-20.109 13.36-33.16 13.36-12.6 0-24-4.78-32.27-12.5v-.011c-8.3-7.76-13.44-18.489-13.44-30.35 0-23.67 20.46-42.85 45.71-42.85 25.24.001 45.71 19.181 45.71 42.851z" fill="#fff400"/><g fill="none" stroke="#231f20"><path stroke-width="14" d="M192.3 112.83h460.91v633.34H192.3z"/><path stroke-width="14" d="M169.91 91.28h505.68v676.44H169.91z"/><path d="M534.04 610.06c-8.3-7.76-13.44-18.489-13.44-30.35 0-23.67 20.46-42.85 45.71-42.85 25.24 0 45.71 19.18 45.71 42.85 0 11.43-4.779 21.82-12.55 29.5-8.33 8.23-20.109 13.36-33.16 13.36-12.6 0-24-4.78-32.27-12.5" stroke-width="21"/><path stroke-width="21" d="M534.04 610.06v102.5l32.27-38.57 33.57 33.57v-97.95M237.89 269.51h371.38M237.89 310.13h371.38M237.89 352.13h371.38M237.89 396.06h371.38M237.89 436.68h371.38M237.89 478.69h371.38M299.23 200.7h246.21M237.89 565.45h159.99"/></g><path fill="none" d="M0 0h850.394v850.394H0z"/></svg>
